static/assets/svg/human/humanClothes/glasses/glasses3.svg

<svg class="glasses" width="86" height="380" viewBox="202.715 584.407 86.593 380.048" xmlns="http://www.w3.org/2000/svg"><path d="M271.702 621.136c-1.586 6.026-7.727 9.8-14.459 8.693-6.688-1.093-10.686-7.32-9.525-13.2 1.205-6.107 8.019-9.76 14.46-8.707 6.687 1.107 10.687 7.334 9.524 13.214zm-28.752-.334c-1.589 6.027-7.731 9.8-14.461 8.694-6.688-1.094-10.686-7.32-9.525-13.2 1.205-6.12 8.018-9.76 14.459-8.707 6.689 1.093 10.685 7.32 9.527 13.213zm40.824-15.053c-.727-.173-1.228-.173-2.139-.333-3.234 2.706-6.241 5.453-9.373 8.253-1.734-3.493-5.152-6.2-9.647-7.187-7.497-1.653-14.745 3.16-16.479 9.747l-.069.307c-.446-.16-.933-.2-1.433-.027l-.064.027c-.912-4.987-4.914-9.12-10.711-10.387-6.15-1.36-12.137 1.64-15.043 6.4-3.704-2.627-7.407-5.267-11.111-7.893-.436.16-.876.306-1.317.44l.201.2c3.866 2.733 7.627 5.866 11.49 8.613l.013.013c-.289.627-.53 1.294-.709 1.974-1.8 6.84 3.464 13.466 10.671 15.04 7.493 1.653 14.742-3.16 16.476-9.747a12.81 12.81 0 0 0 .228-3c.13-.12.183-.147.332-.227.255-.146.5-.013.723.2-.461 6.12 4.471 11.68 10.992 13.107 7.496 1.653 14.747-3.16 16.479-9.747.436-2.2.274-4.36-.391-6.333 3.612-3.2 7.129-6.36 10.881-9.44" fill="#593f32"/></svg>

<svg id="glasses3" class="glasses" width="86" height="380" viewBox="202.715 584.407 86.5933 380.048" preserveAspectRatio="xMidYMid meet" xmlns="http://www.w3.org/2000/svg"> <defs id="svgEditorDefs"> <path id="svgEditorClosePathDefs" class="lines" fill="black" style="stroke-width: 0px; stroke: none;"/> </defs> <path id="path2324" style="fill: rgb(89, 63, 50); fill-opacity: 1; fill-rule: nonzero; stroke: none; stroke-width: 0;" d="M 271.702 621.136 C 270.116 627.162 263.975 630.936 257.243 629.829 C 250.555 628.736 246.557 622.509 247.718 616.629 C 248.923 610.522 255.737 606.869 262.178 607.922 C 268.865 609.029 272.865 615.256 271.702 621.136 Z M 242.95 620.802 C 241.361 626.829 235.219 630.602 228.489 629.496 C 221.801 628.402 217.803 622.176 218.964 616.296 C 220.169 610.176 226.982 606.536 233.423 607.589 C 240.112 608.682 244.108 614.909 242.95 620.802 Z M 283.774 605.749 C 283.047 605.576 282.546 605.576 281.635 605.416 C 278.401 608.122 275.394 610.869 272.262 613.669 C 270.528 610.176 267.11 607.469 262.615 606.482 C 255.118 604.829 247.87 609.642 246.136 616.229 L 246.067 616.536 C 245.621 616.376 245.134 616.336 244.634 616.509 L 244.57 616.536 C 243.658 611.549 239.656 607.416 233.859 606.149 C 227.709 604.789 221.722 607.789 218.816 612.549 C 215.112 609.922 211.409 607.282 207.705 604.656 C 207.269 604.816 206.829 604.962 206.388 605.096 L 206.589 605.296 C 210.455 608.029 214.216 611.162 218.079 613.909 L 218.092 613.922 C 217.803 614.549 217.562 615.216 217.383 615.896 C 215.583 622.736 220.847 629.362 228.054 630.936 C 235.547 632.589 242.796 627.776 244.53 621.189 C 244.727 620.176 244.8 619.176 244.758 618.189 C 244.888 618.069 244.941 618.042 245.09 617.962 C 245.345 617.816 245.59 617.949 245.813 618.162 C 245.352 624.282 250.284 629.842 256.805 631.269 C 264.301 632.922 271.552 628.109 273.284 621.522 C 273.72 619.322 273.558 617.162 272.893 615.189 C 276.505 611.989 280.022 608.829 283.774 605.749"/></svg>
